dist/svgs/crypto-icons/icons/plr.svg

<?xml version="1.0" encoding="UTF-8" standalone="yes"?>
<svg xmlns="http://www.w3.org/2000/svg" xmlns:xlink="http://www.w3.org/1999/xlink" width="509.3333333333333px" height="252px" viewBox="0 0 382 189" version="1.1">
  <g id="surface1">
    <path style=" stroke:none;fill-rule:nonzero;fill:rgb(0%,0%,0%);fill-opacity:1;" d="M 254.972656 153.273438 C 234.261719 153.273438 219.535156 140.828125 219.765625 120.777344 C 220.226562 103.488281 230.582031 89.199219 255.203125 89.199219 L 276.605469 89.199219 L 276.605469 77.90625 C 276.605469 69.144531 273.84375 61.769531 261.878906 61.769531 C 249.449219 61.769531 246.6875 67.761719 245.769531 76.753906 L 223.21875 76.753906 C 224.136719 58.3125 232.652344 42.871094 262.566406 42.871094 C 287.421875 42.871094 300.308594 53.011719 300.308594 78.597656 L 300.308594 151.890625 L 277.753906 151.890625 L 277.753906 145.898438 L 276.835938 145.898438 C 272.234375 148.894531 267.398438 153.273438 254.972656 153.273438 Z M 276.605469 115.703125 L 276.605469 104.871094 L 258.425781 104.871094 C 245.769531 104.871094 242.316406 110.863281 242.316406 119.625 C 242.316406 130.457031 248.992188 135.527344 258.65625 135.527344 C 271.3125 135.296875 276.605469 127 276.605469 115.703125 Z M 25.3125 145.207031 L 24.394531 145.207031 L 24.394531 187.617188 L 0.460938 187.617188 L 0.460938 44.023438 L 23.933594 44.023438 L 23.933594 50.707031 L 24.851562 50.707031 C 32.90625 42.871094 43.492188 42.640625 49.246094 42.640625 C 73.636719 42.640625 89.746094 65.917969 89.746094 97.035156 L 89.746094 101.183594 C 89.746094 133.683594 71.105469 152.8125 49.015625 152.8125 C 38.199219 152.8125 30.605469 150.507812 25.3125 145.207031 Z M 67.425781 103.027344 L 67.425781 95.882812 C 67.425781 75.601562 59.832031 62 46.023438 62 C 31.066406 62 23.242188 77.675781 23.242188 95.882812 L 23.242188 102.796875 C 23.242188 120.085938 31.066406 133.222656 46.484375 133.222656 C 58.449219 133.453125 67.425781 124.003906 67.425781 103.027344 Z M 101.484375 43.332031 L 125.414062 43.332031 L 125.414062 151.429688 L 101.484375 151.429688 Z M 142.214844 1.152344 L 166.148438 1.152344 L 166.148438 151.429688 L 142.214844 151.429688 Z M 182.945312 1.152344 L 206.878906 1.152344 L 206.878906 151.429688 L 182.945312 151.429688 Z M 367.734375 66.609375 C 354.15625 66.609375 341.039062 77.214844 341.039062 90.8125 L 341.039062 151.429688 L 317.105469 151.429688 L 317.105469 44.023438 L 339.199219 44.023438 L 339.199219 50.707031 L 340.117188 50.707031 C 345.410156 44.945312 358.527344 42.410156 369.34375 42.640625 L 370.492188 42.640625 L 370.492188 66.839844 Z M 101.484375 1.152344 L 125.414062 1.152344 L 125.414062 26.96875 L 101.484375 26.96875 Z M 357.835938 125.617188 L 381.769531 125.617188 L 381.769531 151.429688 L 357.835938 151.429688 Z M 357.835938 125.617188 "/>
  </g>
</svg>

<svg xmlns="http://www.w3.org/2000/svg" viewBox="0 0 382 189"><path d="M254.973 153.273c-20.711 0-35.438-12.445-35.207-32.496.46-17.289 10.816-31.578 35.437-31.578h21.402V77.906c0-8.761-2.761-16.136-14.726-16.136-12.43 0-15.192 5.992-16.11 14.984h-22.55c.918-18.442 9.433-33.883 39.347-33.883 24.856 0 37.743 10.14 37.743 35.727v73.293h-22.555v-5.993h-.918c-4.602 2.997-9.438 7.375-21.863 7.375zm21.632-37.57v-10.832h-18.18c-12.655 0-16.109 5.992-16.109 14.754 0 10.832 6.676 15.902 16.34 15.902 12.656-.23 17.95-8.527 17.95-19.824zM25.312 145.207h-.917v42.41H.46V44.023h23.473v6.684h.918c8.054-7.836 18.64-8.066 24.394-8.066 24.39 0 40.5 23.277 40.5 54.394v4.149c0 32.5-18.64 51.629-40.73 51.629-10.817 0-18.41-2.305-23.703-7.606zm42.114-42.18v-7.144C67.426 75.602 59.832 62 46.023 62c-14.957 0-22.78 15.676-22.78 33.883v6.914c0 17.289 7.823 30.426 23.241 30.426 11.965.23 20.942-9.22 20.942-30.196zm34.058-59.695h23.93V151.43h-23.93zm40.73-42.18h23.934V151.43h-23.933zm40.731 0h23.934V151.43h-23.934zm184.79 65.457c-13.579 0-26.696 10.606-26.696 24.204v60.617h-23.934V44.023H339.2v6.684h.918c5.293-5.762 18.41-8.297 29.227-8.066h1.148V66.84zM101.484 1.152h23.93V26.97h-23.93zm256.35 124.465h23.935v25.813h-23.934zm0 0"/></svg>
